X:1
T:Wir Glauben all, an einen Gott, Vater
T:Wir Glauben all' an einen Gott, Vater.
T:a 2 Clav. e Pedale doppio. (fünfstimmig.) BWV 740
T:J. S. Bach
C:J. S. Bach
%%score 1 { 2 | ( 3 4 7 ) | ( 5 6 ) } { ( 8 9 12 ) | ( 10 11 ) }
L:1/8
Q:1/4=36
M:4/4
K:F
V:1 treble nm="Organ" snm="Org."
V:2 treble nm="Organ"
V:3 treble 
V:4 treble 
V:7 treble 
V:5 bass 
V:6 bass 
V:8 treble+8 nm="Organ"
V:9 treble+8 
V:12 treble+8 
V:10 bass+8 
V:11 bass+8 
V:1
"^Instrument"!mp! z8 | z8 | z8 | z8 | z8 | z8 | z4 A4 | A2 c2 B2 A2 | G2 PTG3/2 F/4 G/4 F4- | %9
 F4- F2 z2 | z8 | z8 | G2 A2 B2 A2 | G2 PTG3/2 F/4 G/4 F4- | F4- F z !breath!z2 :| z8 | z8 | z8 | %18
 z8 | z8 | f2 f2 e2 e2 | d2 PTd3/2 c/4 d/4 c4- | c4- c2 z2 | z8 | z8 | c2 c2 B2 A2 | %26
 G2 PTG3/2 F/4 G/4 F4- | F4- F/4f/4_e/4f/4d/4f/4B/4d/4 F/4d/4c/4d/4B/4d/4F/4B/4 | %28
 D/4 F/4 _E/4 F/4 D/4 F/4 B,/4 D/4 G,/4 F/4 =E/4 D/4 C/4 A/4 G/4 F/4 E/4c/4B/4A/4G/4f/4e/4d/4[Q:1/4=34] c/4[Q:1/4=32]a/4[Q:1/4=30]g/4[Q:1/4=28]f/4[Q:1/4=25]e/4[Q:1/4=21]b/4[Q:1/4=16]a/4[Q:1/4=10]g/4 | %29
[Q:1/4=27]{g} f4 z4 |] %30
V:2
!mp! z8 | z8 | z8 | z8 | z8 | z8 | z4 A4 | A2 c2 B2 A2 | G2 PTG3/2F/4G/4 F4- | F4- F2 z2 | z8 | %11
 z8 | G2 A2 B2 A2 | G2 PTG3/2F/4G/4 F4- | F4- F z !breath!z2 :| z8 | z8 | z8 | z8 | z8 | %20
 f2 f2 e2 e2 | d2 PTd3/2c/4d/4 c4- | c4- c2 z2 | z8 | z8 | c2 c2 B2 A2 | G2 PTG3/2F/4G/4 F4- | %27
 F4- F/4f/4_e/4f/4d/4f/4B/4d/4 F/4d/4c/4d/4B/4d/4F/4B/4 | %28
 D/4F/4_E/4F/4D/4F/4B,/4D/4 G,/4F/4=E/4D/4C/4A/4G/4F/4 E/4c/4B/4A/4G/4f/4e/4d/4 c/4a/4g/4f/4e/4b/4a/4g/4 | %29
{g} f4 z4 |] %30
V:3
 z4 z2 f_e | d=e f2- f2"^(   )" Pe/d/e | fc"^(   )" Pd/c/d cade | fg/a/ dg/f/ e2"^(    )" T^f2 | %4
 g^fg=f efge | cd/e/ f_e dg=ef | e/c/f/B/ A/B/ z/ G/ FAGE | FG A2 G2 A=F | DBcB AB c2 | %9
 dc B/A/B AGF=E | F2 PT^F3/2E/4F/4 GFGA | BABG AGA=B | c2- c_B/A/ G2 F2- | F2 E2 FGAc | %14
 Bc B/c/d c/A/B/G/ A2 :| AFA=B cG"^(   )" Mc2- | c/=B/c/A/ TB2 cG ^F/A/G/F/ | %17
 G/A/=B/A/ ^G/B/A/G/ A/B/c- c/B/c/d/ | =BcdG G2 c_B | AB c2 FA B2 | ABcG G4 | A2 GF EF G2 | %22
 A_BcA GFGA | Bc- cF/E/ FdcB | AB c2- cA B/A/B | A2- AB/A/ G2 F2- | F2 E2 FGAc | Bc B/c/d- d4- | %28
 d2 c2- c4 | c4 z4 |] %30
V:4
 AGFE FG A2 | FGAc dB- B>c | A2 B/A/B AF G2 | AFGd G2 D/c/B/A/ | Bc d2 c2 _B2- | BA/G/ Ac B2 G_A | %6
 G/B/=A/G/ F/G/ z/ E/ C2 ^C2 | DE ^F2 D=C-C=F- | F2 E2 FG A2 | F_E D/C/D C4- | C2 D2- DCB,^F | %11
 G^FGE C2- CG/=F/ | E2- ED- DEFC | D2 CB, A,B,CF- | F_E F2- F=E F2 :| CA,CD G,C G/F/G/E/ | %16
 F2- F/E/F/D/ E/D/E/C/ A,2 | =B,/C/D- D/D/C/B,/ C/D/E D^F | D^FG=F E2 FE | FEF_E DCFG | C2 FD C4 | %21
 z F D2 G,D E2 | FE F2 EDE^F | DE=FC DF E/D/E | CD _E2 DE D/C/D | C2 D2- D=EFC | D2 CB, A,B,CF- | %27
 F_E FB- B4- | B2 B2- B4 | A4 z4 |] %30
V:5
 z2 A,2 A,B, =C2 | B,2 A,2 G,2 G,2 | F,4- F,C=B,C- | C2 =B,2 C_B,A,D,- | D,A,B,=B, C4- | %5
 C2- CF,- F,D,B,=B, | C2- C_B, A,F,E,G, | F,E,D,_E, D,=E, F,2 | G,3 C- CB,A,F, | %9
 B,A, F,2- F,B,A,G, | A,2- A,C B,A,G, z | z D, G,2 =F,E, F,2 | G,2- G,^F, G,2 CA, | %13
 B,2 G,C- CB, A,2 | B,A, B,2 A,C F,2 :| z8 | z4 C2 C2 | =B,2 B,2 A,2 A,2 | G,A, =B,2 C_B,A,G, | %19
 F,G, A,2 B,F,D,=E, | F,G,A,=B, CG, C2- | CC =B,2 C4- | C_B,A,C C2 C2 | B,2 A,2 G,2 G,2 | %24
 F,4- F,2- F,>G, | A,G, ^F,2 G,2 CA, | B,2 G,C- CB, A,2 | B,A,B,F,- F,4- | F,2 =E,6 | F,4 z4 |] %30
V:6
 F,E,D,^C, D,2 A,,F,, | B,,G,,F,,A,, B,,G,,C,C,, | F,,_E,D,B,, F,,2- F,,=E,, | D,,2 G,,2 C,2 D,,2 | %4
 G,,4 C,D,E,C, | F,C,F,,A,, B,,2 z D, | C,2 C,,2 F,,2 A,,2 | D,,2- D,,^F,, G,,2 =F,,A,, | %8
 B,,G,, C,2 F,,3 _E,, | D,,F,, B,,2 F,,2 C,2 | F,,_E,, D,,2 G,,2 z D,, | G,,2 z C, =F,,2 z D, | %12
 C,B,,A,,D, G,,C, =F,,2 | B,,G,, C,2 F,,2- F,,_E, | D,C,D,B,, F,,4 :| F,2 F,2 E,2 E,2 | %16
 D,2 D,2 C,2 D,2 | G,,F,, E,,2 A,,=G,,^F,,D,, | G,,4 C,4 | F,,8- | F,,2- F,,G,, C,,3 E,, | %21
 F,,2 G,,2 C,2- C,_B,, | A,,G,,A,,F,, C,2 B,,A,, | G,,2 F,,2 B,,2 C,2 | F,,2- F,,A,, B,,C,D,B,, | %25
 F,,_E,, D,,2 G,,C, =F,,2 | B,,G,, C,2 F,,3 _E, | D,C,D,B,, F,,4- | F,,8- | F,,4 z4 |] %30
V:7
 x8 | x8 | x8 | x8 | x8 | x8 | x8 | x8 | x8 | x8 | x8 | x8 | x8 | x8 | x8 :| x8 | x8 | x8 | x8 | %19
 x8 | x8 | x8 | x8 | x8 | x8 | x8 | x8 | x8 | x2 G2- G4 | C4 x4 |] %30
V:8
"^Instrument"!mp! z4 z2 f _e | d e f2- f2"^(   )" Pe/ d/ e | f c"^(   )" Pd/ c/ d c a d e | %3
 f g/ a/ d g/ f/ e2"^(    )" T^f2 | g ^f g =f e f g e | c d/ e/ f _e d g =e f | %6
 e/ c/ f/ B/ A/ B/ z/ G/ F A G E | F G A2 G2 A =F | D B c B A B c2 | d c B/ A/ B A G F =E | %10
 F2 PT^F3/2 E/4 F/4 G F G A | B A B G A G A =B | c2- c B/ A/ G2 F2- | F2 E2 F G A c | %14
 B c B/ c/ d c/ A/ B/ G/ A2 :| A F A =B c G"^(   )" Mc2- | c/ =B/ c/ A/ TB2 c G ^F/ A/ G/ F/ | %17
 G/ A/ =B/ A/ ^G/ B/ A/ G/ A/ B/ c- c/ B/ c/ d/ | =B c d G G2 c _B | A B c2 F A B2 | A B c G G4 | %21
 A2 G F E F G2 | A B c A G F G A | B c- c F/ E/ F d c B | A B c2- c A B/ A/ B | %25
 A2- A B/ A/ G2 F2- | F2 E2 F G A c | B c B/ c/ d- d4- | d2 c2- c4 | c4 z4 |] %30
V:9
 A G F E F G A2 | F G A c d B- B3/2 c/ | A2 B/ A/ B A F G2 | A F G d G2 D/c/B/A/ | B c d2 c2 B2- | %5
 B A/ G/ A c B2 G _A | G/ B/ A/ G/ F/G/ z/ E/ C2 ^C2 | D E ^F2 D C- C =F- | F2 E2 F G A2 | %9
 F _E D/ C/ D C4- | C2 D2- DCB,^F | G ^F G E C2- C G/ =F/ | E2- ED- DEFC | D2 CB, A,B,CF- | %14
 F _E F2- F =E F2 :| C A, C D G, C G/ F/ G/ E/ | F2- F/ E/ F/ D/ E/ D/ E/ C/ A,2 | %17
 =B,/ C/ D- D/ D/ C/ B,/ C/ D/ E D ^F | D ^F G =F E2 F E | F E F _E DCFG | C2 F D C4 | %21
 z F D2 G,D E2 | F E F2 E D E ^F | D E F C D F E/ D/ E | C D _E2 D E D/ C/ D | C2 D2- D E F C | %26
 D2 CB, A,B,CF- | F _E F B- B4- | B2 B2- B4 | A4 z4 |] %30
V:10
 z2 A,2 A, B, C2 | B,2 A,2 G,2 G,2 | F,4- F, C =B, C- | C2 =B,2 C_B,A,D,- | D, A, B, =B, C4- | %5
 C2- C F,- F, D, B, =B, | C2- CB, A, F, E, G, | F, E, D, _E, D, =E, F,2 | G,3 C- C B, A, F, | %9
 B, A, F,2- F, B, A, G, | A,2- A, C B,A,G, z | z D, G,2 F, E, F,2 | G,2- G, ^F, G,2 CA, | %13
 B,2 G,C- CB, A,2 | B, A, B,2 A, C F,2 :| z8 | z4 C2 C2 | =B,2 B,2 A,2 A,2 | %18
 G, A, =B,2 C _B, A, G, | F, G, A,2 B,F,D,E, | F, G, A, =B, C G, C2- | C C =B,2 C4- | %22
 C B, A, C C2 C2 | B,2 A,2 G,2 G,2 | F,4- F,2- F,3/2 G,/ | A, G, ^F,2 G,2 CA, | B,2 G,C- CB, A,2 | %27
 B, A, B, F,- F,4- | F,2 E,6 | F,4 z4 |] %30
V:11
 F, E, D, ^C, D,2 A,, F,, | B,, G,, F,, A,, B,, G,, C, C,, | F,, _E, D, B,, F,,2- F,, E,, | %3
 D,,2 G,,2 C,2 D,,2 | G,,4 C, D, E, C, | F, C, F,, A,, B,,2 z D, | C,2 C,,2 F,,2 A,,2 | %7
 D,,2- D,, ^F,, G,,2 =F,, A,, | B,, G,, C,2 F,,3 _E,, | D,, F,, B,,2 F,,2 C,2 | %10
 F,, _E,, D,,2 G,,2 z D,, | G,,2 z C, F,,2 z D, | C, B,, A,, D, G,, C, F,,2 | %13
 B,, G,, C,2 F,,2- F,, _E, | D, C, D, B,, F,,4 :| F,2 F,2 E,2 E,2 | D,2 D,2 C,2 D,2 | %17
 G,, F,, E,,2 A,, G,, ^F,, D,, | G,,4 C,4 | F,,8- | F,,2- F,, G,, C,,3 E,, | %21
 F,,2 G,,2 C,2- C, B,, | A,, G,, A,, F,, C,2 B,, A,, | G,,2 F,,2 B,,2 C,2 | %24
 F,,2- F,, A,, B,, C, D, B,, | F,, _E,, D,,2 G,, C, F,,2 | B,, G,, C,2 F,,3 _E, | %27
 D, C, D, B,, F,,4- | F,,8- | F,,4 z4 |] %30
V:12
 x8 | x8 | x8 | x8 | x8 | x8 | x8 | x8 | x8 | x8 | x8 | x8 | x8 | x8 | x8 :| x8 | x8 | x8 | x8 | %19
 x8 | x8 | x8 | x8 | x8 | x8 | x8 | x8 | x8 | x2 G2- G4 | C4 x4 |] %30

